X:1
T: Dorsetshire Hornpipe, The
C: R-74
M: C|
Z:
R: hornpipe
K: D
ag| "D"fefg agfe| dcdf A2AG| FAdf "Bm"gfed| "E"cdef "A7"e2ag|
    "D"fefg "A7"agfe| "D"dcdf A2AG| FAdf "A"egce| "D"d2d2 d2:|
|:\
cd| "A"edcB ABcd| edef e2de| "D"fedc "G"Bcde| "D"fefg f2AG|
    "D"FAd2 "Em"GBe2| "D"Adf2 "G"Bdg2| "D"f2ed "A"Bdce| "D"d2d2 d2:|
%
